Yosa-Max/apps/scalable/kmag.svg

<?xml version="1.0" encoding="UTF-8"?>
<svg id="svg8" width="48" height="48" version="1.1" viewBox="0 0 12.7 12.7" xmlns="http://www.w3.org/2000/svg">
 <defs id="defs2">
  <linearGradient id="a" x1="368.48416" x2="368.96432" y1="544.92139" y2="517.39703" gradientTransform="matrix(.36451389 0 0 .3865627 -127.94244 85.064632)" gradientUnits="userSpaceOnUse">
   <stop id="stop2" stop-color="#00a199" offset="0"/>
   <stop id="stop4" stop-color="#00f89a" stop-opacity=".988235" offset="1"/>
  </linearGradient>
 </defs>
 <g id="layer1" transform="translate(0,-284.29998)">
  <rect id="rect7" x=".52916682" y="285.22601" width="11.641666" height="10.847917" rx=".74759549" ry=".74759549" style="fill:url(#a);opacity:.98799995;stroke-width:.37379774"/>
  <path id="path919" transform="matrix(.26458333 0 0 .26458333 0 284.29998)" d="m8.7324219 9.2792969c-0.3020674 0-0.5449219 0.2449285-0.5449219 0.546875v27.802734 0.544922c0 0.301984 0.2428575 0.546875 0.5449219 0.546875h0.546875 29.988281c0.30206 0 0.544922-0.244928 0.544922-0.546875v-28.347656c0-0.3019843-0.242836-0.546875-0.544922-0.546875h-29.988281-0.546875zm14.248047 9.2207031c0.759588 0 1.486305 0.146603 2.179687 0.441406 0.693185 0.294766 1.290979 0.693354 1.792969 1.195313 0.501993 0.501997 0.898598 1.09969 1.193359 1.792969 0.294859 0.693203 0.44336 1.420115 0.44336 2.179687 0 1.168592-0.329619 2.228872-0.988282 3.179687l2.732422 2.732422c0.196669 0.196498 0.29502 0.435222 0.294922 0.716797 0 0.27617-0.100881 0.51497-0.302734 0.716797-0.201657 0.201827-0.440619 0.302734-0.716797 0.302734-0.287034 0-0.525602-0.100907-0.716797-0.302734l-2.732422-2.724609c-0.950783 0.658582-2.010917 0.988281-3.179687 0.988281-0.759589 0-1.486406-0.148556-2.179688-0.443359-0.693184-0.294841-1.290976-0.693203-1.792969-1.195313-0.501992-0.501997-0.90055-1.097812-1.195312-1.791016-0.294859-0.693392-0.441406-1.420078-0.441406-2.179687 0-0.759572 0.14655-1.486409 0.441406-2.179687 0.29476-0.693204 0.69332-1.290972 1.195312-1.792969 0.501993-0.501959 1.099687-0.90051 1.792969-1.195313 0.693185-0.294841 1.420099-0.441406 2.179688-0.441406zm0 2.039062c-0.982666 0-1.823019 0.350259-2.521485 1.048829-0.698465 0.698456-1.048828 1.538845-1.048828 2.521484 0 0.982753 0.350265 1.822952 1.048828 2.521484 0.698563 0.69857 1.538819 1.046875 2.521485 1.046875 0.98276 0 1.822921-0.348305 2.521484-1.046875 0.698467-0.698532 1.048828-1.538731 1.048828-2.521484 0-0.982639-0.350262-1.823028-1.048828-2.521484-0.698661-0.698608-1.538822-1.048829-2.521484-1.048829z" style="fill:#34495e"/>
  <path id="path914" transform="matrix(.26458333 0 0 .26458333 0 284.29998)" d="m10.318359 12.603516c-0.5794945 0-1.0468746 0.528538-1.0468746 1.18164v22.689453c0 0.653103 0.4673801 1.179688 1.0468746 1.179688h27.363282c0.579491 0 1.046875-0.526585 1.046875-1.179688v-22.689453c0-0.653102-0.467384-1.18164-1.046875-1.18164h-27.363282zm12.66211 5.896484c0.759588 0 1.486305 0.146603 2.179687 0.441406 0.693185 0.294766 1.290979 0.693354 1.792969 1.195313 0.501993 0.501997 0.898598 1.09969 1.193359 1.792969 0.294859 0.693203 0.44336 1.420115 0.44336 2.179687 0 1.168592-0.329619 2.228872-0.988282 3.179687l2.732422 2.732422c0.196669 0.196498 0.29502 0.435222 0.294922 0.716797 0 0.27617-0.100881 0.51497-0.302734 0.716797-0.201657 0.201827-0.440619 0.302734-0.716797 0.302734-0.287034 0-0.525602-0.100907-0.716797-0.302734l-2.732422-2.724609c-0.950783 0.658582-2.010917 0.988281-3.179687 0.988281-0.759589 0-1.486406-0.148556-2.179688-0.443359-0.693184-0.294841-1.290976-0.693203-1.792969-1.195313-0.501992-0.501997-0.90055-1.097812-1.195312-1.791016-0.294859-0.693392-0.441406-1.420078-0.441406-2.179687 0-0.759572 0.14655-1.486409 0.441406-2.179687 0.29476-0.693204 0.69332-1.290972 1.195312-1.792969 0.501993-0.501959 1.099687-0.90051 1.792969-1.195313 0.693185-0.294841 1.420099-0.441406 2.179688-0.441406zm0 2.039062c-0.982666 0-1.823019 0.350259-2.521485 1.048829-0.698465 0.698456-1.048828 1.538845-1.048828 2.521484 0 0.982753 0.350265 1.822952 1.048828 2.521484 0.698563 0.69857 1.538819 1.046875 2.521485 1.046875 0.98276 0 1.822921-0.348305 2.521484-1.046875 0.698467-0.698532 1.048828-1.538731 1.048828-2.521484 0-0.982639-0.350262-1.823028-1.048828-2.521484-0.698661-0.698608-1.538822-1.048829-2.521484-1.048829z" style="fill:#ffffff;stroke-width:1.7654083"/>
  <g id="g916" transform="matrix(.24285684 0 0 .24285684 2.5637073 285.45124)" style="fill-opacity:.98823529;fill:#00ab99;stroke-width:1.0894622">
   <g id="g17" transform="matrix(.6134646 0 0 .6134646 -178.01914 -297.8473)" style="fill-opacity:.98823529;fill:#00ab99;stroke-width:1.6303915">
    <path id="path9" d="m294.90044 506.26511v5h1v-4h4v-1z" style="fill-opacity:.98823529;fill:#00ab99;opacity:.75;stroke-width:1.6303915"/>
    <path id="path11" d="m294.90044 538.56511h5v-1h-4v-4h-1z" style="fill-opacity:.98823529;fill:#00ab99;opacity:.75;stroke-width:1.6303915"/>
    <path id="path13" d="m336.2007 538.06511v-5h-1v4h-4v1z" style="fill-opacity:.98823529;fill:#00ab99;opacity:.75;stroke-width:1.6303915"/>
    <path id="path15" d="m336.3007 506.56472h-5v1h4v4h1z" style="fill-opacity:.98823529;fill:#00ab99;opacity:.75;stroke-width:1.6303915"/>
   </g>
  </g>
 </g>
</svg>

<?xml version="1.0" encoding="UTF-8" standalone="no"?>
<svg
   xmlns:dc="http://purl.org/dc/elements/1.1/"
   xmlns:cc="http://creativecommons.org/ns#"
   xmlns:rdf="http://www.w3.org/1999/02/22-rdf-syntax-ns#"
   xmlns:svg="http://www.w3.org/2000/svg"
   xmlns="http://www.w3.org/2000/svg"
   id="svg8"
   version="1.1"
   viewBox="0 0 12.7 12.7"
   height="48"
   width="48">
  <defs
     id="defs2">
    <linearGradient
       y2="517.39703"
       y1="545.75293"
       x2="368.96432"
       x1="368.96432"
       gradientUnits="userSpaceOnUse"
       gradientTransform="matrix(0.36451391,0,0,0.3865627,-127.94245,85.064643)"
       id="a-3">
      <stop
         id="stop2-6"
         stop-color="#c61423"
         offset="0" />
      <stop
         id="stop4-7"
         stop-color="#ff4c63"
         offset="1" />
    </linearGradient>
    <linearGradient
       y2="517.39703"
       y1="544.92139"
       x2="368.96432"
       x1="368.48416"
       gradientUnits="userSpaceOnUse"
       gradientTransform="matrix(0.36451389,0,0,0.3865627,-127.94244,85.064632)"
       id="a">
      <stop
         id="stop2"
         stop-color="#00a199"
         offset="0" />
      <stop
         id="stop4"
         stop-opacity=".988235"
         stop-color="#00f89a"
         offset="1" />
    </linearGradient>
  </defs>
  <metadata
     id="metadata5">
    <rdf:RDF>
      <cc:Work
         rdf:about="">
        <dc:format>image/svg+xml</dc:format>
        <dc:type
           rdf:resource="http://purl.org/dc/dcmitype/StillImage" />
        <dc:title></dc:title>
      </cc:Work>
    </rdf:RDF>
  </metadata>
  <g
     transform="translate(0,-284.29998)"
     id="layer1">
    <rect
       id="rect7"
       y="285.22601"
       x="0.52916682"
       width="11.641666"
       ry="0.74759549"
       height="10.847917"
       style="opacity:0.98799995;fill:url(#a);stroke-width:0.37379774"
       rx="0.74759549" />
    <path
       id="path919"
       transform="matrix(0.26458333,0,0,0.26458333,0,284.29998)"
       d="M 8.7324219 9.2792969 C 8.4303545 9.2792969 8.1875 9.5242254 8.1875 9.8261719 L 8.1875 37.628906 L 8.1875 38.173828 C 8.1875 38.475812 8.4303575 38.720703 8.7324219 38.720703 L 9.2792969 38.720703 L 39.267578 38.720703 C 39.569638 38.720703 39.8125 38.475775 39.8125 38.173828 L 39.8125 9.8261719 C 39.8125 9.5241876 39.569664 9.2792969 39.267578 9.2792969 L 9.2792969 9.2792969 L 8.7324219 9.2792969 z M 22.980469 18.5 C 23.740057 18.5 24.466774 18.646603 25.160156 18.941406 C 25.853341 19.236172 26.451135 19.63476 26.953125 20.136719 C 27.455118 20.638716 27.851723 21.236409 28.146484 21.929688 C 28.441343 22.622891 28.589844 23.349803 28.589844 24.109375 C 28.589844 25.277967 28.260225 26.338247 27.601562 27.289062 L 30.333984 30.021484 C 30.530653 30.217982 30.629004 30.456706 30.628906 30.738281 C 30.628906 31.014451 30.528025 31.253251 30.326172 31.455078 C 30.124515 31.656905 29.885553 31.757812 29.609375 31.757812 C 29.322341 31.757812 29.083773 31.656905 28.892578 31.455078 L 26.160156 28.730469 C 25.209373 29.389051 24.149239 29.71875 22.980469 29.71875 C 22.22088 29.71875 21.494063 29.570194 20.800781 29.275391 C 20.107597 28.98055 19.509805 28.582188 19.007812 28.080078 C 18.50582 27.578081 18.107262 26.982266 17.8125 26.289062 C 17.517641 25.59567 17.371094 24.868984 17.371094 24.109375 C 17.371094 23.349803 17.517644 22.622966 17.8125 21.929688 C 18.10726 21.236484 18.50582 20.638716 19.007812 20.136719 C 19.509805 19.63476 20.107499 19.236209 20.800781 18.941406 C 21.493966 18.646565 22.22088 18.5 22.980469 18.5 z M 22.980469 20.539062 C 21.997803 20.539062 21.15745 20.889321 20.458984 21.587891 C 19.760519 22.286347 19.410156 23.126736 19.410156 24.109375 C 19.410156 25.092128 19.760421 25.932327 20.458984 26.630859 C 21.157547 27.329429 21.997803 27.677734 22.980469 27.677734 C 23.963229 27.677734 24.80339 27.329429 25.501953 26.630859 C 26.20042 25.932327 26.550781 25.092128 26.550781 24.109375 C 26.550781 23.126736 26.200519 22.286347 25.501953 21.587891 C 24.803292 20.889283 23.963131 20.539062 22.980469 20.539062 z "
       style="fill:#34495e;fill-opacity:1;stroke:none;stroke-width:0.49248073" />
    <path
       id="path914"
       transform="matrix(0.26458333,0,0,0.26458333,0,284.29998)"
       d="M 10.318359 12.603516 C 9.7388645 12.603516 9.2714844 13.132054 9.2714844 13.785156 L 9.2714844 36.474609 C 9.2714844 37.127712 9.7388645 37.654297 10.318359 37.654297 L 37.681641 37.654297 C 38.261132 37.654297 38.728516 37.127712 38.728516 36.474609 L 38.728516 13.785156 C 38.728516 13.132054 38.261132 12.603516 37.681641 12.603516 L 10.318359 12.603516 z M 22.980469 18.5 C 23.740057 18.5 24.466774 18.646603 25.160156 18.941406 C 25.853341 19.236172 26.451135 19.63476 26.953125 20.136719 C 27.455118 20.638716 27.851723 21.236409 28.146484 21.929688 C 28.441343 22.622891 28.589844 23.349803 28.589844 24.109375 C 28.589844 25.277967 28.260225 26.338247 27.601562 27.289062 L 30.333984 30.021484 C 30.530653 30.217982 30.629004 30.456706 30.628906 30.738281 C 30.628906 31.014451 30.528025 31.253251 30.326172 31.455078 C 30.124515 31.656905 29.885553 31.757812 29.609375 31.757812 C 29.322341 31.757812 29.083773 31.656905 28.892578 31.455078 L 26.160156 28.730469 C 25.209373 29.389051 24.149239 29.71875 22.980469 29.71875 C 22.22088 29.71875 21.494063 29.570194 20.800781 29.275391 C 20.107597 28.98055 19.509805 28.582188 19.007812 28.080078 C 18.50582 27.578081 18.107262 26.982266 17.8125 26.289062 C 17.517641 25.59567 17.371094 24.868984 17.371094 24.109375 C 17.371094 23.349803 17.517644 22.622966 17.8125 21.929688 C 18.10726 21.236484 18.50582 20.638716 19.007812 20.136719 C 19.509805 19.63476 20.107499 19.236209 20.800781 18.941406 C 21.493966 18.646565 22.22088 18.5 22.980469 18.5 z M 22.980469 20.539062 C 21.997803 20.539062 21.15745 20.889321 20.458984 21.587891 C 19.760519 22.286347 19.410156 23.126736 19.410156 24.109375 C 19.410156 25.092128 19.760421 25.932327 20.458984 26.630859 C 21.157547 27.329429 21.997803 27.677734 22.980469 27.677734 C 23.963229 27.677734 24.80339 27.329429 25.501953 26.630859 C 26.20042 25.932327 26.550781 25.092128 26.550781 24.109375 C 26.550781 23.126736 26.200519 22.286347 25.501953 21.587891 C 24.803292 20.889283 23.963131 20.539062 22.980469 20.539062 z "
       style="fill:#ffffff;stroke-width:1.76540828" />
    <g
       transform="matrix(0.24285684,0,0,0.24285684,2.5637073,285.45124)"
       id="g916"
       style="fill:#00ab99;fill-opacity:0.98823529;stroke-width:1.08946216">
      <g
         style="fill:#00ab99;fill-opacity:0.98823529;stroke-width:1.63039148"
         id="g17"
         transform="matrix(0.6134646,0,0,0.6134646,-178.01914,-297.8473)">
        <path
           style="opacity:0.75;fill:#00ab99;fill-opacity:0.98823529;stroke-width:1.63039148"
           id="path9"
           d="m 294.90044,506.26511 v 1 4 h 1 v -4 h 4 v -1 z" />
        <path
           style="opacity:0.75;fill:#00ab99;fill-opacity:0.98823529;stroke-width:1.63039148"
           id="path11"
           d="m 294.90044,538.56511 h 1 4 v -1 h -4 v -4 h -1 z" />
        <path
           style="opacity:0.75;fill:#00ab99;fill-opacity:0.98823529;stroke-width:1.63039148"
           id="path13"
           d="m 336.2007,538.06511 v -1 -4 h -1 v 4 h -4 v 1 z" />
        <path
           style="opacity:0.75;fill:#00ab99;fill-opacity:0.98823529;stroke-width:1.63039148"
           id="path15"
           d="m 336.3007,506.56472 h -1 -4 v 1 h 4 v 4 h 1 z" />
      </g>
    </g>
  </g>
</svg>
